X:1
T:C minor Oliver Holden, 1800
T:Thomas Gibbons, 1769 86. 86. (C. M.)
T:Sicily No copyright. Transcribed from Plain Psalmody, 1800.
%%score [ 1 2 3 4 ]
L:1/8
M:4/4
K:Eb
V:1 treble nm="Voice"
V:2 treble nm="Voice"
V:3 treble-8 nm="Tenor"
V:4 bass nm="Bass"
V:1
 c4 | e2 dc d2 d2 | c2 =Bc G2 F2 | E2 G2 B2 c2 | B6 G2 | c2 d2 c2 G2 | A2 A2 G3 F | G2 A2 G2 F2 | %8
 E4 z2 c2 | e2 c2 =B2 d2 | c8 :| %11
V:2
"^1.{" C4 | E2 G2 G2 G2 | E2 D2 E2 D2 | C2 E2 E2 E2 | E6 G2 | C2 D2 C2 D2 | E2 F2 G3 F | %7
w: In|the soft sea- son|of thy youth, In|na- ture's smi- ling|bloom, Ere|age ar- rive and|trem- bling wait Its|
w: Re-|mem- ber thy cre-|a- tor, God; For|Him thy powers em-|ploy; Make|Him thy fear, thy|love, thy hope, Thy|
 G2 E2 D2 D2 | C4 z2 E2 | G2 G2 G2 G2 |"^}" G8 :| %11
w: sum- mons to the|tomb, Its|sum- mons to the|tomb.|
w: con- fi- dence, thy|joy, Thy|con- fi- dence, th|joy.|
V:3
"^2.{" G4 | c2 =Bc B2 A2 | G2 G2 G2 B2 | e2 B2 G2 E2 | G6 G2 | c2 d2 c2 =B2 | c2 d2 e3 f | %7
w: He|shall de- * fend and|guide thy course Through|life's un- cer- tain|sea, Till|thou art land- ed|on the shore Of|
w: Then|seek the * Lord be-|times, and choose The|path of heaven- ly|truth; The|earth af- fords no|love- lier sight Than|
 e2 c2 G2 A2 | G4 z2 G2 | c2 e2 d2 =B2 |"^}" c8 :| %11
w: blest e- ter- ni-|ty, Of|blest e- ter- ni-|ty.|
w: a re- li- gious|youth, Than|a re- li- gious|youth.|
V:4
 C,4 | C,2 G,2 G,2 G,2 | C,2 G,,2 C,2 D,2 | E,2 E,2 E,2 E,2 | E,6 G,2 | C2 D2 C2 G,2 | %6
 F,2 F,2 E,3 D, | C,2 C,2 G,,2 G,,2 | C,4 z2 C,2 | C,2 C,2 G,2 G,2 | C,8 :| %11

